X: 18
T: No_115_Hinata_Dance_Song_(k).krn
N: Derived from No_115_Hinata_Dance_Song_(k).krn
%%abc-version 2.0
%%abcx-abcm2ps-target-version 5.9.1 (29 Sep 2008)
%%abc-creator hum2abc beta
%%abcx-conversion-date 2019/03/15 08:38:45
%%humdrum-veritas 1281524471
%%humdrum-veritas-data 830229471
%%linebreak <none>
%%barnumbers 0
L: 1/16
M: 2/4
K: F clef=bass
[K:clef=bass][M:2/4]z4z3 D ]|:  
C3C (D2C2) | 
(C2A,2) A,A, z C | 
C3C (A,3F,) | 
F,4F,F, z A, | 
(A,F,2)F,C,4 | 
C,4C,C, z G, | 
F,3F,G,4 | 
F,4F,F, z A, | 
(A,F,2)F,C,4 | 
C,4C,C, z D :|]  



